X: 79
T: A Poor Man's Prayer
N: Derived from pawnee79.krn
O: Oklahoma, U.S.A.
N: from Pawnee Music by Frances Densmore, 1926
Z: transcribed to **kern format by David Huron, August 2000
C: Skidi and Chaui Bands, 1919
L: 1/8
M: 3/4
Q: 1/4=88
K: G clef=bass
%%linebreak <none>
G G G> F G D [I:setbarnb 2]| 
D D E> D D B, | 
D D E> D B, G, | 
B, B, G, G, G, G,/ G,/[M:2/4] | 
G,4[M:3/4] | 
G,6- | 
G,6[M:2/4] | 
G, D D D | 
F< D D3/ B,/ | 
D2B,2[M:3/4] | 
D D E> D B, G, | 
B, B, G, G, G, G, | 
G,6 | 
G, G, !tenuto!A,> G, G, D, | 
D, D, E,> D, D, B,, | 
D, D, E,> D, D, B,, | 
D, D, E,> D, B,, G,, | 
B,, B,, G,, G,, G,, G,, | 
G,,6[M:2/4] | 
G,4- | 
G,4 :|]  



